X:1
T:02 - Allemande
T:02 - Allemande
T:Suite in D Minor
T:Elisabeth Jacquet de la Guerre
C:Elisabeth Jacquet de la Garde
%%score { ( 1 3 5 ) | ( 2 4 ) }
L:1/8
Q:1/4=80
M:4/4
K:C
V:1 treble nm="Piano" snm="Pno."
V:3 treble 
V:5 treble 
V:2 bass 
V:4 bass 
V:1
 F | [DF]3 G A2 B^c | d>e !arpeggio![df]>e Pd>^c Md>e | P^cB/A/ Md>=c P_B>A MB>c | %4
 PA>G PF>E PD>^C D>G | GA/G/ PF>E MF>D MA>B | McPA M_B!turn!c d>G MA>_B | %7
 PE>G c>_B PA>G{G} A!turn!F | G4- GF/E/ MF>E | PD>C PB,>A, P^G,B, M^C>D | (PE4 [A,C]4) :: %11
"_Reprise" E | [^CE]4 z EM^F!turn!^G | A>B M^c>!turn!d e>d P!courtesy!^c>B | A>G PF>E d>c P_B>A | %15
 [G_B]2 Ac z F2 G | PE2 MF!turn!G AMF GPE | [CF]4- [CF] !turn!FGD | E!turn!_B cE{E} ^FD d>A | %19
{A} _BG- g4 f2 | e3 AMB^c d>e | M^cB/c/ d/=c/_B/A/ B/A/PG/F/ PE>F | PD [F,A,]3- [F,A,]4 :| %23
V:2
 z | z2 MD,6 | z A, DE FEFG | AG ^FD GF GG, | D D,2 E, F,G,/A,/ _B,G, | A,A,, B,,>^C, D,E,F,G, | %6
 A,F,G,A, z _B,3- | B,_B, A,G, F,E, F,D, | z2 E,2 z A,3 | F,3 F, E,4 | A,,3 E,, MA,,4 :: z | %12
 z E,MA,B, ^C2 D2 | CD EF GF EG | FE DC _B,A, G,F, | PE,C, F,2- F,2 F,2 | z G,A, E, F,A,, _B,,C, | %17
 F,!turn!E, F,A,, F,4 | z G, A,2- A,2 _B,^F, | G,2 z E- E2 z D | B,2 A,2 ^G,A, E,2- | %21
 E,2 F,2- F,/F,/E,/D,/ A,,2 | z2 F,,A,, MD,4 :| %23
V:3
 x | A,3 E PFD GE | F>G A2 x4 | x8 | x6 MD2 | ^C2 x6 | x8 | x8 | x2 G,MC_B, A,2 x | x4 ^G,4 | %10
 z A,3- x4 :: x | A,4 x4 | x8 | x4 D4 | C2 [CF]2 z/ C3/2 PB,2 | C2 x6 | A,4- A, z z B, | x8 | %19
 z GG _B{B} ^c A2 B | P^G E2 z z2 B2 | x6 ^C2 | z D3- D4 :| %23
V:4
 x | D,,8 | D,2 x6 | x8 | x8 | x4 D,4 | C,4 _B,,4 | C,8 | C,3 C, ^C,2 D,E, | F,E, D,2 E,2 E,,2 | %10
 z2 A,,,2- A,,,4 :: x | A,,4 A,3 B, | A,8- | A,4 x4 | x2 F,E, D,3 D, | C,4 x4 | F,, z z2 D,4 | %18
 C,3 A,, D,4 | G,2 E,2 A,2 D,2 | [D,F,]2 [C,E,]2 B,,A,, ^G,,2 | =G,,2 F,,2 G,,2 A,,2 | %22
 D,,4- D,,4 :| %23
V:5
 x | x8 | x8 | x8 | x8 | x8 | x8 | x8 | z x7 | x8 | z2 E,2- E,4 :: x | x8 | x8 | x8 | x8 | x8 | %17
 x8 | x8 | x8 | x8 | x8 | x8 :| %23

